inst/assets/svg/wi-day-storm-showers.svg

<?xml version="1.0" encoding="UTF-8"?>
<svg xmlns="http://www.w3.org/2000/svg" xmlns:xlink="http://www.w3.org/1999/xlink" width="30pt" height="30pt" viewBox="0 0 30 30" version="1.1">
<g id="surface151">
<path style=" stroke:none;fill-rule:nonzero;fill:rgb(0%,0%,0%);fill-opacity:1;" d="M 1.488281 16.878906 C 1.488281 18 1.820313 19 2.488281 19.878906 C 3.160156 20.761719 4.019531 21.351563 5.070313 21.640625 L 4.410156 23.339844 C 4.359375 23.480469 4.410156 23.558594 4.550781 23.558594 L 6.679688 23.558594 L 5.25 27.769531 L 5.539063 27.769531 L 9.898438 22.109375 C 9.941406 22.070313 9.941406 22.019531 9.921875 21.96875 C 9.898438 21.921875 9.851563 21.898438 9.78125 21.898438 L 7.589844 21.898438 L 10.078125 17.25 C 10.148438 17.109375 10.109375 17.03125 9.941406 17.03125 L 6.980469 17.03125 C 6.890625 17.03125 6.808594 17.078125 6.75 17.179688 L 5.679688 20.058594 C 4.960938 19.878906 4.359375 19.5 3.898438 18.898438 C 3.429688 18.308594 3.199219 17.640625 3.199219 16.878906 C 3.199219 16.039063 3.480469 15.308594 4.039063 14.699219 C 4.601563 14.089844 5.308594 13.730469 6.148438 13.628906 L 6.660156 13.601563 C 6.78125 13.601563 6.851563 13.550781 6.878906 13.460938 L 6.949219 12.871094 C 7.058594 11.789063 7.511719 10.878906 8.320313 10.148438 C 9.128906 9.421875 10.078125 9.050781 11.179688 9.050781 C 12.269531 9.050781 13.21875 9.421875 14.039063 10.148438 C 14.859375 10.878906 15.328125 11.789063 15.441406 12.871094 L 15.519531 13.460938 C 15.519531 13.570313 15.578125 13.628906 15.699219 13.628906 L 17.308594 13.628906 C 18.199219 13.628906 18.96875 13.949219 19.621094 14.589844 C 20.269531 15.230469 20.589844 15.988281 20.589844 16.878906 C 20.589844 17.75 20.289063 18.5 19.691406 19.140625 C 19.089844 19.78125 18.371094 20.121094 17.511719 20.171875 C 17.378906 20.171875 17.308594 20.230469 17.308594 20.351563 L 17.308594 21.691406 C 17.308594 21.800781 17.378906 21.859375 17.511719 21.859375 C 18.390625 21.839844 19.199219 21.601563 19.929688 21.140625 C 20.660156 20.691406 21.238281 20.078125 21.671875 19.328125 C 22.101563 18.578125 22.308594 17.761719 22.308594 16.878906 C 22.308594 16.148438 22.171875 15.480469 21.878906 14.859375 C 22.640625 13.898438 23.019531 12.800781 23.019531 11.570313 C 23.019531 10.621094 22.78125 9.738281 22.308594 8.929688 C 21.839844 8.121094 21.199219 7.480469 20.390625 7.011719 C 19.578125 6.539063 18.699219 6.300781 17.75 6.300781 C 17.03125 6.300781 16.328125 6.449219 15.648438 6.75 C 14.96875 7.050781 14.390625 7.46875 13.890625 8 C 13.078125 7.570313 12.179688 7.351563 11.171875 7.351563 C 9.75 7.351563 8.488281 7.789063 7.398438 8.671875 C 6.308594 9.550781 5.601563 10.671875 5.300781 12.039063 C 4.191406 12.300781 3.28125 12.878906 2.558594 13.78125 C 1.851563 14.699219 1.488281 15.730469 1.488281 16.878906 Z M 9.671875 26.800781 C 9.671875 26.949219 9.71875 27.109375 9.828125 27.269531 C 9.941406 27.429688 10.089844 27.539063 10.289063 27.609375 C 10.398438 27.640625 10.488281 27.648438 10.539063 27.648438 C 10.691406 27.648438 10.820313 27.621094 10.921875 27.570313 C 11.128906 27.488281 11.28125 27.300781 11.351563 27 L 11.621094 25.96875 C 11.679688 25.71875 11.648438 25.5 11.539063 25.300781 C 11.429688 25.101563 11.238281 24.980469 11.011719 24.929688 C 10.800781 24.859375 10.601563 24.890625 10.390625 25 C 10.179688 25.121094 10.039063 25.289063 9.96875 25.519531 L 9.71875 26.558594 C 9.691406 26.699219 9.671875 26.78125 9.671875 26.800781 Z M 9.898438 4.589844 C 9.898438 4.820313 9.980469 5.019531 10.148438 5.191406 L 10.800781 5.851563 C 10.960938 6.011719 11.140625 6.089844 11.351563 6.109375 C 11.558594 6.140625 11.761719 6.070313 11.960938 5.878906 C 12.160156 5.699219 12.261719 5.488281 12.261719 5.238281 C 12.261719 5.011719 12.179688 4.808594 12.011719 4.640625 L 11.378906 3.980469 C 11.21875 3.820313 11.019531 3.738281 10.78125 3.738281 C 10.53125 3.738281 10.320313 3.820313 10.148438 3.980469 C 9.988281 4.160156 9.898438 4.359375 9.898438 4.589844 Z M 11.011719 22 C 11 22.160156 11.050781 22.320313 11.148438 22.46875 C 11.25 22.621094 11.410156 22.730469 11.628906 22.789063 C 11.839844 22.859375 12.050781 22.839844 12.25 22.730469 C 12.449219 22.621094 12.589844 22.429688 12.671875 22.171875 L 12.96875 21.140625 C 13.039063 20.921875 13.011719 20.710938 12.890625 20.511719 C 12.769531 20.308594 12.589844 20.171875 12.351563 20.101563 C 12.121094 20.03125 11.910156 20.050781 11.710938 20.171875 C 11.511719 20.289063 11.371094 20.460938 11.300781 20.699219 L 11.058594 21.75 C 11.03125 21.898438 11.011719 21.980469 11.011719 22 Z M 13.839844 23.679688 C 13.839844 23.820313 13.871094 23.960938 13.941406 24.070313 C 14.070313 24.28125 14.25 24.429688 14.480469 24.5 C 14.589844 24.539063 14.691406 24.558594 14.761719 24.558594 C 14.890625 24.558594 14.988281 24.539063 15.070313 24.480469 C 15.269531 24.410156 15.421875 24.210938 15.519531 23.878906 L 15.769531 22.871094 C 15.839844 22.628906 15.820313 22.421875 15.699219 22.21875 C 15.589844 22.019531 15.421875 21.890625 15.191406 21.828125 C 14.960938 21.761719 14.738281 21.78125 14.539063 21.898438 C 14.339844 22.011719 14.199219 22.179688 14.128906 22.410156 L 13.851563 23.449219 C 13.851563 23.53125 13.839844 23.609375 13.839844 23.679688 Z M 15.210938 18.859375 C 15.210938 19.039063 15.261719 19.199219 15.371094 19.359375 C 15.480469 19.519531 15.640625 19.628906 15.859375 19.691406 C 16.03125 19.75 16.230469 19.730469 16.46875 19.640625 C 16.671875 19.550781 16.808594 19.359375 16.898438 19.070313 L 17.171875 18.070313 C 17.230469 17.820313 17.210938 17.601563 17.089844 17.398438 C 16.96875 17.199219 16.800781 17.078125 16.558594 17.03125 C 16.328125 16.960938 16.121094 16.980469 15.921875 17.089844 C 15.71875 17.199219 15.589844 17.371094 15.519531 17.589844 L 15.230469 18.648438 C 15.21875 18.789063 15.210938 18.859375 15.210938 18.859375 Z M 15.308594 9.019531 C 15.980469 8.378906 16.789063 8.050781 17.761719 8.050781 C 18.738281 8.050781 19.578125 8.390625 20.269531 9.078125 C 20.960938 9.761719 21.308594 10.601563 21.308594 11.578125 C 21.308594 12.238281 21.148438 12.839844 20.839844 13.390625 C 19.878906 12.429688 18.710938 11.949219 17.320313 11.949219 L 17.011719 11.949219 C 16.71875 10.761719 16.148438 9.78125 15.308594 9.019531 Z M 16.910156 3.75 C 16.910156 3.988281 16.988281 4.191406 17.160156 4.359375 C 17.328125 4.53125 17.53125 4.609375 17.761719 4.609375 C 18 4.609375 18.199219 4.53125 18.359375 4.359375 C 18.519531 4.191406 18.601563 3.988281 18.601563 3.75 L 18.601563 1.691406 C 18.601563 1.449219 18.519531 1.238281 18.359375 1.078125 C 18.199219 0.910156 18 0.820313 17.761719 0.820313 C 17.519531 0.820313 17.320313 0.898438 17.160156 1.070313 C 17 1.238281 16.910156 1.441406 16.910156 1.679688 Z M 22.488281 6.039063 C 22.488281 6.28125 22.570313 6.480469 22.71875 6.640625 C 22.859375 6.800781 23.039063 6.878906 23.269531 6.898438 C 23.5 6.921875 23.710938 6.828125 23.898438 6.640625 L 25.339844 5.199219 C 25.519531 5.039063 25.601563 4.839844 25.601563 4.601563 C 25.601563 4.359375 25.511719 4.160156 25.339844 4 C 25.179688 3.820313 24.980469 3.738281 24.738281 3.738281 C 24.511719 3.738281 24.320313 3.828125 24.160156 4 L 22.71875 5.441406 C 22.558594 5.589844 22.488281 5.789063 22.488281 6.039063 Z M 23.261719 17.949219 C 23.261719 18.179688 23.339844 18.378906 23.511719 18.550781 L 24.160156 19.179688 C 24.339844 19.351563 24.550781 19.429688 24.78125 19.429688 L 24.800781 19.449219 C 25.019531 19.449219 25.199219 19.359375 25.339844 19.179688 C 25.519531 19.019531 25.601563 18.820313 25.601563 18.578125 C 25.601563 18.351563 25.511719 18.148438 25.339844 17.96875 L 24.71875 17.351563 C 24.539063 17.171875 24.339844 17.078125 24.109375 17.078125 C 23.871094 17.078125 23.671875 17.171875 23.511719 17.339844 C 23.351563 17.511719 23.261719 17.71875 23.261719 17.949219 Z M 24.730469 11.578125 C 24.730469 11.820313 24.820313 12.019531 24.988281 12.171875 C 25.148438 12.351563 25.351563 12.429688 25.589844 12.429688 L 27.648438 12.429688 C 27.890625 12.429688 28.089844 12.351563 28.261719 12.179688 C 28.429688 12.011719 28.511719 11.808594 28.511719 11.578125 C 28.511719 11.351563 28.429688 11.140625 28.261719 10.980469 C 28.089844 10.820313 27.890625 10.738281 27.648438 10.738281 L 25.589844 10.738281 C 25.351563 10.738281 25.140625 10.820313 24.980469 10.980469 C 24.808594 11.140625 24.730469 11.339844 24.730469 11.578125 Z M 24.730469 11.578125 "/>
</g>
</svg>

<?xml version="1.0" encoding="utf-8"?>
<!-- Generator: Adobe Illustrator 22.0.1, SVG Export Plug-In . SVG Version: 6.00 Build 0)  -->
<svg version="1.1" id="Layer_1" xmlns="http://www.w3.org/2000/svg" xmlns:xlink="http://www.w3.org/1999/xlink" x="0px" y="0px"
	 viewBox="0 0 30 30" style="enable-background:new 0 0 30 30;" xml:space="preserve">
<path d="M1.49,16.88c0,1.12,0.33,2.12,1,3s1.53,1.47,2.58,1.76l-0.66,1.7c-0.05,0.14,0,0.22,0.14,0.22h2.13l-1.43,4.21h0.29
	l4.36-5.66c0.04-0.04,0.04-0.09,0.02-0.14C9.9,21.92,9.85,21.9,9.78,21.9H7.59l2.49-4.65c0.07-0.14,0.03-0.22-0.14-0.22H6.98
	c-0.09,0-0.17,0.05-0.23,0.15l-1.07,2.88C4.96,19.88,4.36,19.5,3.9,18.9c-0.47-0.59-0.7-1.26-0.7-2.02c0-0.84,0.28-1.57,0.84-2.18
	c0.56-0.61,1.27-0.97,2.11-1.07l0.51-0.03c0.12,0,0.19-0.05,0.22-0.14l0.07-0.59c0.11-1.08,0.56-1.99,1.37-2.72s1.76-1.1,2.86-1.1
	c1.09,0,2.04,0.37,2.86,1.1s1.29,1.64,1.4,2.72l0.08,0.59c0,0.11,0.06,0.17,0.18,0.17h1.61c0.89,0,1.66,0.32,2.31,0.96
	s0.97,1.4,0.97,2.29c0,0.87-0.3,1.62-0.9,2.26s-1.32,0.98-2.18,1.03c-0.13,0-0.2,0.06-0.2,0.18v1.34c0,0.11,0.07,0.17,0.2,0.17
	c0.88-0.02,1.69-0.26,2.42-0.72c0.73-0.45,1.31-1.06,1.74-1.81s0.64-1.57,0.64-2.45c0-0.73-0.14-1.4-0.43-2.02
	c0.76-0.96,1.14-2.06,1.14-3.29c0-0.95-0.24-1.83-0.71-2.64c-0.47-0.81-1.11-1.45-1.92-1.92c-0.81-0.47-1.69-0.71-2.64-0.71
	c-0.72,0-1.42,0.15-2.1,0.45c-0.68,0.3-1.26,0.72-1.76,1.25c-0.81-0.43-1.71-0.65-2.72-0.65c-1.42,0-2.68,0.44-3.77,1.32
	s-1.8,2-2.1,3.37c-1.11,0.26-2.02,0.84-2.74,1.74C1.85,14.7,1.49,15.73,1.49,16.88z M9.67,26.8c0,0.15,0.05,0.31,0.16,0.47
	c0.11,0.16,0.26,0.27,0.46,0.34c0.11,0.03,0.2,0.04,0.25,0.04c0.15,0,0.28-0.03,0.38-0.08c0.21-0.08,0.36-0.27,0.43-0.57l0.27-1.03
	c0.06-0.25,0.03-0.47-0.08-0.67s-0.3-0.32-0.53-0.37c-0.21-0.07-0.41-0.04-0.62,0.07c-0.21,0.12-0.35,0.29-0.42,0.52l-0.25,1.04
	C9.69,26.7,9.67,26.78,9.67,26.8z M9.9,4.59c0,0.23,0.08,0.43,0.25,0.6l0.65,0.66c0.16,0.16,0.34,0.24,0.55,0.26
	c0.21,0.03,0.41-0.04,0.61-0.23c0.2-0.18,0.3-0.39,0.3-0.64c0-0.23-0.08-0.43-0.25-0.6l-0.63-0.66c-0.16-0.16-0.36-0.24-0.6-0.24
	c-0.25,0-0.46,0.08-0.63,0.24C9.99,4.16,9.9,4.36,9.9,4.59z M11.01,22c-0.01,0.16,0.04,0.32,0.14,0.47c0.1,0.15,0.26,0.26,0.48,0.32
	c0.21,0.07,0.42,0.05,0.62-0.06c0.2-0.11,0.34-0.3,0.42-0.56l0.3-1.03c0.07-0.22,0.04-0.43-0.08-0.63s-0.3-0.34-0.54-0.41
	c-0.23-0.07-0.44-0.05-0.64,0.07c-0.2,0.12-0.34,0.29-0.41,0.53l-0.24,1.05C11.03,21.9,11.01,21.98,11.01,22z M13.84,23.68
	c0,0.14,0.03,0.28,0.1,0.39c0.13,0.21,0.31,0.36,0.54,0.43c0.11,0.04,0.21,0.06,0.28,0.06c0.13,0,0.23-0.02,0.31-0.08
	c0.2-0.07,0.35-0.27,0.45-0.6l0.25-1.01c0.07-0.24,0.05-0.45-0.07-0.65c-0.11-0.2-0.28-0.33-0.51-0.39
	c-0.23-0.07-0.45-0.05-0.65,0.07c-0.2,0.11-0.34,0.28-0.41,0.51l-0.28,1.04C13.85,23.53,13.84,23.61,13.84,23.68z M15.21,18.86
	c0,0.18,0.05,0.34,0.16,0.5c0.11,0.16,0.27,0.27,0.49,0.33c0.17,0.06,0.37,0.04,0.61-0.05c0.2-0.09,0.34-0.28,0.43-0.57l0.27-1
	c0.06-0.25,0.04-0.47-0.08-0.67s-0.29-0.32-0.53-0.37c-0.23-0.07-0.44-0.05-0.64,0.06c-0.2,0.11-0.33,0.28-0.4,0.5l-0.29,1.06
	C15.22,18.79,15.21,18.86,15.21,18.86z M15.31,9.02c0.67-0.64,1.48-0.97,2.45-0.97c0.98,0,1.82,0.34,2.51,1.03
	c0.69,0.68,1.04,1.52,1.04,2.5c0,0.66-0.16,1.26-0.47,1.81c-0.96-0.96-2.13-1.44-3.52-1.44h-0.31C16.72,10.76,16.15,9.78,15.31,9.02
	z M16.91,3.75c0,0.24,0.08,0.44,0.25,0.61s0.37,0.25,0.6,0.25c0.24,0,0.44-0.08,0.6-0.25c0.16-0.17,0.24-0.37,0.24-0.61V1.69
	c0-0.24-0.08-0.45-0.24-0.61C18.2,0.91,18,0.82,17.76,0.82c-0.24,0-0.44,0.08-0.6,0.25s-0.25,0.37-0.25,0.61V3.75z M22.49,6.04
	c0,0.24,0.08,0.44,0.23,0.6c0.14,0.16,0.32,0.24,0.55,0.26c0.23,0.02,0.44-0.07,0.63-0.26l1.44-1.44c0.18-0.16,0.26-0.36,0.26-0.6
	s-0.09-0.44-0.26-0.6c-0.16-0.18-0.36-0.26-0.6-0.26c-0.23,0-0.42,0.09-0.58,0.26l-1.44,1.44C22.56,5.59,22.49,5.79,22.49,6.04z
	 M23.26,17.95c0,0.23,0.08,0.43,0.25,0.6l0.65,0.63c0.18,0.17,0.39,0.25,0.62,0.25l0.02,0.02c0.22,0,0.4-0.09,0.54-0.27
	c0.18-0.16,0.26-0.36,0.26-0.6c0-0.23-0.09-0.43-0.26-0.61l-0.62-0.62c-0.18-0.18-0.38-0.27-0.61-0.27c-0.24,0-0.44,0.09-0.6,0.26
	C23.35,17.51,23.26,17.72,23.26,17.95z M24.73,11.58c0,0.24,0.09,0.44,0.26,0.59c0.16,0.18,0.36,0.26,0.6,0.26h2.06
	c0.24,0,0.44-0.08,0.61-0.25c0.17-0.17,0.25-0.37,0.25-0.6s-0.08-0.44-0.25-0.6c-0.17-0.16-0.37-0.24-0.61-0.24h-2.06
	c-0.24,0-0.45,0.08-0.61,0.24C24.81,11.14,24.73,11.34,24.73,11.58z"/>
</svg>
